configs/network-logos/immutable.svg

<svg width="118" height="24" viewBox="0 0 118 24" fill="none" xmlns="http://www.w3.org/2000/svg">
<g clip-path="url(#clip0_10500_94513)">
<g clip-path="url(#clip1_10500_94513)">
<path fill-rule="evenodd" clip-rule="evenodd" d="M0 12C0 5.3726 5.41813 0 12.1017 0C18.7853 0 24.2034 5.3726 24.2034 12C24.2034 18.6274 18.7853 24 12.1017 24C5.41813 24 0 18.6274 0 12ZM12.5934 4.88052C12.2675 4.69711 11.9133 4.68593 11.5772 4.84921C11.3621 4.95364 11.155 5.07371 10.9397 5.19858C10.8346 5.25959 10.7274 5.32175 10.6163 5.38378C10.6482 5.40291 10.6759 5.41971 10.7009 5.43495C10.7433 5.4607 10.7783 5.48195 10.8137 5.50233C11.1406 5.68941 11.4673 5.87676 11.794 6.06412C12.7739 6.62606 13.7537 7.18801 14.7375 7.7424C14.9935 7.88667 15.0927 8.0712 15.0916 8.3575C15.0858 9.45165 15.0867 10.5452 15.0876 11.639C15.0879 12.0366 15.0882 12.4343 15.0882 12.8321V13.0602C15.2096 12.9908 15.3285 12.923 15.4456 12.8564C15.7887 12.6609 16.1156 12.4747 16.4394 12.2829C16.4833 12.2572 16.5183 12.1789 16.5183 12.1253C16.5228 10.6747 16.5251 9.22535 16.5183 7.77484C16.5172 7.36104 16.3322 7.02442 15.9713 6.81417C14.8502 6.16328 13.7235 5.5191 12.5934 4.88052ZM11.2862 19.6633C11.3022 19.6713 11.319 19.6797 11.337 19.6887C11.337 19.5548 11.3366 19.4232 11.3361 19.2934C11.3348 18.9321 11.3335 18.5843 11.3427 18.2371C11.3449 18.0984 11.2953 18.0291 11.178 17.962C10.5776 17.6202 9.97796 17.2772 9.37839 16.9342C8.59273 16.4848 7.8071 16.0354 7.01966 15.5888C6.7986 15.4636 6.69597 15.3014 6.69823 15.0464C6.70612 14.1226 6.705 13.1989 6.69823 12.2751C6.69597 12.0268 6.79635 11.868 7.01176 11.7461C7.98335 11.1947 8.95187 10.6395 9.92049 10.0843C10.264 9.88744 10.6076 9.69052 10.9513 9.49376C11.0167 9.45573 11.081 9.41771 11.1656 9.36738C11.0442 9.29792 10.9243 9.22969 10.8055 9.16215C10.4884 8.98177 10.1798 8.80624 9.87535 8.62479C9.76594 8.55993 9.68925 8.56999 9.58436 8.63038C8.37194 9.32936 7.15951 10.0272 5.94032 10.715C5.47114 10.9789 5.25459 11.3625 5.25685 11.8915C5.26249 13.0647 5.26587 14.2367 5.25572 15.4088C5.25008 15.9601 5.47226 16.3527 5.95949 16.6278C7.18286 17.3194 8.40231 18.0182 9.6214 18.7168C10.1331 19.0101 10.6447 19.3033 11.1566 19.5959C11.1966 19.6187 11.2372 19.6389 11.2862 19.6633ZM11.2272 16.9808C11.2609 16.9998 11.2971 17.0201 11.337 17.0427C11.337 16.8903 11.3365 16.7413 11.336 16.5945C11.3349 16.25 11.3337 15.9183 11.3393 15.5866C11.3415 15.4524 11.3043 15.3763 11.1814 15.3081C10.8601 15.1289 10.5409 14.9459 10.2217 14.7629C9.92117 14.5906 9.62061 14.4182 9.31819 14.249C9.10165 14.1282 9.00578 13.9616 9.01142 13.7156C9.01773 13.4133 9.01631 13.1105 9.01489 12.808C9.01428 12.6784 9.01368 12.5488 9.01368 12.4194V11.622C8.99273 11.6322 8.97513 11.6402 8.95969 11.6473C8.93606 11.6581 8.9175 11.6666 8.89976 11.6768C8.76678 11.7525 8.63393 11.8288 8.50099 11.9052C8.23142 12.0601 7.96152 12.2152 7.6896 12.3657C7.59373 12.4194 7.57907 12.4854 7.57907 12.5815C7.57927 12.646 7.57949 12.7105 7.5797 12.775C7.58185 13.4206 7.58399 14.0663 7.57681 14.712C7.57568 14.8496 7.61967 14.9223 7.73922 14.9894C8.56646 15.4582 9.3918 15.9309 10.2171 16.4035C10.4923 16.5611 10.7674 16.7186 11.0427 16.876C11.1008 16.9097 11.1589 16.9424 11.2272 16.9808ZM9.39939 7.72115C9.63286 7.58583 9.83249 7.58471 10.0659 7.72115C10.7502 8.11984 11.438 8.51268 12.1259 8.9056C12.3893 9.05605 12.6527 9.20651 12.916 9.35732L12.9209 9.36012C13.3366 9.59852 13.7524 9.83699 14.2029 10.0943C14.2029 9.97626 14.203 9.85987 14.2032 9.74482C14.2037 9.32912 14.2043 8.93076 14.1972 8.53308C14.1972 8.48164 14.1307 8.41342 14.0777 8.38322C12.8348 7.66747 11.5897 6.95396 10.3434 6.24268C9.94302 6.01342 9.53474 6.00783 9.13435 6.23597C8.27364 6.72543 7.41501 7.21764 6.55629 7.7099C6.32016 7.84526 6.08402 7.98062 5.84783 8.11594C5.61776 8.2479 5.44407 8.43355 5.35159 8.68071C5.23923 8.9788 5.24764 9.28321 5.25633 9.59781C5.26081 9.76005 5.26537 9.92501 5.25347 10.0932C5.27564 10.0813 5.29574 10.0706 5.31421 10.0607C5.37747 10.0269 5.4216 10.0034 5.46437 9.97912C5.76797 9.80533 6.07162 9.63171 6.37525 9.4581C7.38458 8.881 8.39365 8.30405 9.39939 7.72115ZM18.2067 16.5864C18.5552 16.3873 18.7909 16.1044 18.8236 15.7051C18.8437 15.4596 18.8389 15.2119 18.8339 14.9549C18.8316 14.8374 18.8292 14.7179 18.8292 14.5957C18.8129 14.6033 18.7986 14.6098 18.7857 14.6157C18.7549 14.6297 18.7326 14.6398 18.7119 14.6516C18.5077 14.7685 18.3035 14.8854 18.0993 15.0023C16.3611 15.9973 14.6221 16.9927 12.8822 17.9855C12.7897 18.038 12.7649 18.0984 12.766 18.1979C12.7689 18.4769 12.7685 18.7555 12.7682 19.0341C12.768 19.1933 12.7678 19.3526 12.7683 19.512C12.7683 19.5465 12.7709 19.581 12.774 19.6217C12.7754 19.6403 12.777 19.6602 12.7784 19.682C12.8018 19.6698 12.8233 19.659 12.8434 19.6488C12.8824 19.629 12.9163 19.6117 12.9498 19.5925C13.3664 19.3549 13.7819 19.1173 14.1974 18.8796L14.2062 18.8746C14.6113 18.6428 15.0164 18.4108 15.4216 18.1788C16.3496 17.6473 17.2779 17.1158 18.2067 16.5864ZM18.192 13.9415C18.5834 13.7178 18.8304 13.3991 18.8338 12.945C18.8428 11.6544 18.8394 10.3638 18.836 9.07437C18.8349 8.7288 18.6928 8.42908 18.4108 8.23113C18.1972 8.08111 17.9695 7.94982 17.73 7.81172C17.6231 7.75009 17.5139 7.68711 17.4025 7.6205V7.88108C17.4025 8.27374 17.4021 8.6664 17.4017 9.05906C17.4007 10.1583 17.3996 11.2575 17.407 12.3568C17.4093 12.6431 17.301 12.8142 17.0552 12.9528C16.2249 13.4219 15.397 13.8957 14.5691 14.3696C14.0172 14.6855 13.4653 15.0015 12.9126 15.3159C12.8055 15.3774 12.7637 15.4423 12.766 15.5653C12.7713 15.8531 12.7705 16.1414 12.7698 16.4296C12.7694 16.5736 12.769 16.7176 12.7694 16.8615C12.7694 16.8944 12.7718 16.9268 12.7747 16.9661C12.7763 16.9871 12.778 17.01 12.7795 17.036C12.9111 16.9609 13.0389 16.8881 13.1646 16.8167C13.3233 16.7264 13.4785 16.6381 13.6333 16.5495C13.906 16.3933 14.1788 16.237 14.4516 16.0808C15.698 15.3667 16.9446 14.6526 18.192 13.9415ZM82.2216 9.82366C81.2742 9.82366 80.4858 10.3582 80.1813 10.8727V7.14855H78.3418V16.9834H80.1813V16.0708C80.4858 16.5853 81.2742 17.1199 82.2216 17.1199C84.2066 17.1545 85.3897 15.392 85.3683 13.4718C85.3897 11.5515 84.2066 9.78899 82.2216 9.82366ZM81.9103 15.6458H81.7998C80.9562 15.666 80.1678 14.7612 80.1813 13.4718C80.1678 12.1823 80.9562 11.2775 81.7998 11.2977H81.9103C82.8374 11.2977 83.5288 12.1409 83.5288 13.4583C83.5288 14.7746 82.8306 15.6458 81.9103 15.6458ZM32.5325 7.14855H30.6242V16.9834H32.5325V7.14855ZM42.5341 9.82366C41.5867 9.82366 40.7149 10.2151 40.1961 11.0304C39.8093 10.2352 39.0344 9.82366 38.0318 9.82366C37.1814 9.82366 36.393 10.1938 35.9148 10.9554V9.96123H34.0753V16.9834H35.9148V13.0814C35.9148 12.1006 36.5859 11.367 37.4363 11.367H37.5468C38.3002 11.367 38.6532 11.8401 38.6532 12.7728V16.9834H40.4927V13.0814C40.4927 12.1006 41.157 11.367 42.0074 11.367H42.1179C42.8713 11.367 43.2108 11.8401 43.2108 12.7728V16.9834H45.0503V12.5603C45.0503 11.7305 44.8496 11.065 44.4492 10.5651C44.042 10.0708 43.4059 9.82366 42.5341 9.82366ZM52.432 11.0304C52.9508 10.2151 53.8226 9.82366 54.77 9.82366C55.6407 9.82366 56.2768 10.0708 56.6851 10.5651C57.0866 11.065 57.2874 11.7305 57.2874 12.5603V16.9834H55.4479V12.7728C55.4479 11.8401 55.1084 11.367 54.355 11.367H54.2444C53.3941 11.367 52.7298 12.1006 52.7298 13.0814V16.9834H50.8903V12.7728C50.8903 11.8401 50.5372 11.367 49.7838 11.367H49.6733C48.8229 11.367 48.1519 12.1006 48.1519 13.0814V16.9834H46.3124V9.96123H48.1519V10.9554C48.6289 10.1938 49.4173 9.82366 50.2677 9.82366C51.2703 9.82366 52.0452 10.2352 52.432 11.0304ZM68.7067 14.6651V11.4352H70.2902V9.96123H68.7067V7.68425H66.8672V9.96123H64.7785H62.9953H62.939V13.8632C62.939 14.844 62.2814 15.6458 61.4795 15.6458H61.369C60.6979 15.6458 60.3179 15.1527 60.3179 14.2468V9.96011H58.4784V14.4526C58.4784 15.269 58.6791 15.9131 59.0795 16.3929C59.4742 16.8794 60.0754 17.1199 60.8705 17.1199C61.7491 17.1199 62.5025 16.6736 62.939 15.9545V16.9834H64.7785V11.4352H66.8672V15.1594C66.8672 16.3459 67.5101 16.9834 68.7067 16.9834H70.5045V15.4401H69.4883C68.8375 15.4401 68.7067 15.3103 68.7067 14.6651ZM74.0944 9.82366C75.8786 9.82366 77.0685 10.7295 77.0685 12.3478V15.4423C77.0685 16.1424 77.0888 16.6568 77.1373 16.9856H75.4083C75.3666 16.7866 75.3384 16.498 75.3249 16.1279C74.8827 16.7385 74.135 17.1221 73.2293 17.1221C71.9571 17.1355 70.8857 16.2923 70.906 15.0576C70.906 14.3441 71.1485 13.795 71.6323 13.4114C72.1173 13.0266 72.7387 12.8074 73.5 12.7459L75.2843 12.5883V12.4171C75.2843 11.7853 74.8275 11.2988 74.1497 11.2988H74.0324C73.3681 11.2988 72.9327 11.7103 72.891 12.1353H71.0447C71.197 10.8045 72.3519 9.82366 74.0944 9.82366ZM73.7075 15.647C74.5444 15.647 75.2843 15.0017 75.2843 14.117V13.918L73.7493 14.0757C73.4797 14.0969 73.2372 14.1786 73.0297 14.3228C72.8222 14.4671 72.7184 14.6662 72.7184 14.9335C72.7184 15.3663 73.0917 15.647 73.597 15.647H73.7075ZM86.2886 7.14855H88.1281V16.9834H86.2886V7.14855ZM92.4376 9.82366C90.3623 9.7957 89.0484 11.3737 89.0698 13.4718C89.0349 15.7141 90.6601 17.1478 92.4376 17.1198C94.1733 17.1198 95.2944 16.1592 95.6395 14.7612H93.8135C93.6816 15.2757 93.2327 15.6458 92.5684 15.6458H92.4511C91.683 15.6458 90.9229 14.9871 90.8529 14.0477H95.6395C95.6598 13.7458 95.6677 13.5266 95.6677 13.389C95.688 11.339 94.506 9.80353 92.4376 9.82366ZM90.8541 12.6419C90.8958 11.8121 91.5387 11.2977 92.3135 11.2977H92.424C93.1988 11.2977 93.8417 11.8121 93.8834 12.6419H90.8541Z" fill="black"/>
</g>
</g>
<defs>
<clipPath id="clip0_10500_94513">
<rect width="118" height="24" fill="white"/>
</clipPath>
<clipPath id="clip1_10500_94513">
<rect width="119" height="24" fill="white"/>
</clipPath>
</defs>
</svg>

<svg xmlns="http://www.w3.org/2000/svg" fill="none" viewBox="0 0 118 24">
  <g clip-path="url(#immutable_svg__a)">
    <g clip-path="url(#immutable_svg__b)">
      <path fill="#000" fill-rule="evenodd" d="M0 12C0 5.373 5.418 0 12.102 0c6.683 0 12.101 5.373 12.101 12s-5.418 12-12.101 12C5.418 24 0 18.627 0 12Zm12.593-7.12a1.058 1.058 0 0 0-1.016-.03 9.883 9.883 0 0 0-.637.349 22.08 22.08 0 0 1-.324.185 13.387 13.387 0 0 1 .198.118l.98.562c.98.562 1.96 1.124 2.944 1.678.255.145.355.33.354.615-.006 1.095-.005 2.188-.004 3.282v1.421l.358-.204c.343-.195.67-.381.993-.573.044-.026.08-.104.08-.158.004-1.45.006-2.9 0-4.35a1.063 1.063 0 0 0-.548-.96 333.217 333.217 0 0 0-3.378-1.934Zm-1.307 14.783.051.026v-.396c-.002-.36-.003-.709.006-1.056.002-.139-.048-.208-.165-.275l-1.8-1.028c-.785-.45-1.57-.899-2.358-1.345-.221-.125-.324-.288-.322-.543.008-.923.007-1.847 0-2.77-.002-.25.098-.408.314-.53.971-.551 1.94-1.107 2.908-1.662l1.031-.59.215-.127-.36-.205c-.318-.18-.626-.356-.93-.537-.11-.065-.187-.055-.292.005a449.635 449.635 0 0 1-3.644 2.085c-.469.264-.685.648-.683 1.177a274.87 274.87 0 0 1-.001 3.517c-.006.551.216.944.703 1.219 1.224.691 2.443 1.39 3.662 2.089l1.536.879c.04.023.08.043.13.067Zm-.059-2.682.11.062-.001-.448c-.001-.345-.002-.677.003-1.008.002-.135-.035-.21-.158-.279-.32-.18-.64-.362-.96-.545-.3-.172-.6-.345-.903-.514a.543.543 0 0 1-.307-.533c.007-.303.005-.605.004-.908l-.001-.389v-.797l-.054.025a.719.719 0 0 0-.06.03l-.399.228c-.27.155-.54.31-.811.46-.096.054-.11.12-.11.216v.194c.002.646.004 1.291-.003 1.937-.001.138.043.21.162.277.827.47 1.653.942 2.478 1.415a1351.033 1351.033 0 0 0 1.01.577ZM9.4 7.72c.234-.135.433-.136.667 0 .684.399 1.372.792 2.06 1.185l.79.451.005.003c.416.239.831.477 1.282.734v-.35c0-.415.001-.813-.006-1.21 0-.052-.066-.12-.12-.15a802.839 802.839 0 0 0-3.734-2.141c-.4-.23-.808-.235-1.209-.007-.86.49-1.719.982-2.578 1.474l-.708.406c-.23.132-.404.318-.496.565-.113.298-.104.602-.096.917.005.162.01.327-.003.495l.061-.032.15-.082.911-.52C7.385 8.88 8.394 8.303 9.4 7.72Zm8.808 8.865c.348-.199.584-.482.617-.88.02-.246.015-.494.01-.751-.002-.118-.005-.237-.005-.36l-.043.02c-.031.015-.053.025-.074.037l-.613.35c-1.738.995-3.477 1.99-5.217 2.983-.092.053-.117.113-.116.213.003.279.002.558.002.836v.478c0 .035.003.069.006.11l.004.06.065-.033c.04-.02.073-.037.107-.056l1.247-.713.01-.005 1.215-.696c.928-.532 1.856-1.063 2.785-1.593Zm-.015-2.644c.391-.224.638-.543.642-.997.009-1.29.005-2.581.002-3.87a.996.996 0 0 0-.425-.844c-.214-.15-.442-.281-.681-.42a23.594 23.594 0 0 1-.328-.19v1.438c-.001 1.1-.002 2.199.005 3.298.002.286-.106.457-.352.596-.83.469-1.658.943-2.486 1.417-.552.316-1.104.632-1.656.946-.107.061-.15.126-.147.25.005.287.005.575.004.864v.431c0 .033.002.066.005.105l.005.07.385-.22.468-.267.819-.468a1996.07 1996.07 0 0 1 3.74-2.14Zm64.03-4.118c-.948 0-1.736.534-2.04 1.049V7.149h-1.84v9.834h1.84v-.912c.304.514 1.092 1.049 2.04 1.049 1.985.034 3.168-1.728 3.146-3.648.022-1.92-1.161-3.683-3.146-3.648Zm-.312 5.822h-.11c-.844.02-1.632-.885-1.619-2.174-.013-1.29.775-2.194 1.619-2.174h.11c.927 0 1.619.843 1.619 2.16 0 1.317-.698 2.188-1.619 2.188ZM32.533 7.149h-1.909v9.834h1.909V7.15Zm10.001 2.675c-.947 0-1.82.391-2.338 1.206-.387-.795-1.162-1.206-2.164-1.206-.85 0-1.639.37-2.117 1.131v-.994h-1.84v7.022h1.84v-3.902c0-.98.67-1.714 1.521-1.714h.11c.754 0 1.107.473 1.107 1.406v4.21h1.84v-3.902c0-.98.664-1.714 1.514-1.714h.11c.754 0 1.094.473 1.094 1.406v4.21h1.84V12.56c0-.83-.201-1.495-.602-1.995-.407-.494-1.043-.741-1.915-.741Zm9.898 1.206c.519-.815 1.39-1.206 2.338-1.206.87 0 1.507.247 1.915.741.402.5.602 1.165.602 1.995v4.423h-1.84v-4.21c0-.933-.339-1.406-1.092-1.406h-.11c-.85 0-1.515.734-1.515 1.714v3.902h-1.84v-4.21c0-.933-.353-1.406-1.106-1.406h-.11c-.851 0-1.522.734-1.522 1.714v3.902h-1.84V9.961h1.84v.994c.477-.761 1.265-1.131 2.116-1.131 1.002 0 1.777.411 2.164 1.206Zm16.275 3.635v-3.23h1.583V9.961h-1.583V7.684h-1.84v2.277H62.94v3.902c0 .981-.658 1.783-1.46 1.783h-.11c-.671 0-1.051-.493-1.051-1.4V9.96h-1.84v4.493c0 .816.201 1.46.602 1.94.394.486.995.727 1.79.727.88 0 1.633-.446 2.069-1.166v1.03h1.84v-5.549h2.088v3.724c0 1.187.643 1.824 1.84 1.824h1.797V15.44h-1.016c-.65 0-.781-.13-.781-.775Zm5.387-4.841c1.785 0 2.975.905 2.975 2.524v3.094c0 .7.02 1.215.068 1.544h-1.729a5.438 5.438 0 0 1-.083-.858c-.442.61-1.19.994-2.096.994-1.272.014-2.343-.83-2.323-2.064 0-.714.242-1.263.726-1.647.485-.384 1.107-.604 1.868-.665l1.784-.158v-.17c0-.633-.457-1.12-1.134-1.12h-.118c-.664 0-1.1.412-1.141.837h-1.846c.152-1.33 1.307-2.311 3.05-2.311Zm-.386 5.823c.836 0 1.576-.645 1.576-1.53v-.199l-1.535.158a1.43 1.43 0 0 0-.72.247.696.696 0 0 0-.31.61c0 .433.373.714.878.714h.11Zm12.58-8.498h1.84v9.834h-1.84V7.15Zm6.15 2.675c-2.076-.028-3.39 1.55-3.368 3.648-.035 2.242 1.59 3.676 3.368 3.648 1.735 0 2.856-.96 3.201-2.359h-1.825c-.132.515-.581.885-1.246.885h-.117c-.768 0-1.528-.659-1.598-1.598h4.787c.02-.302.028-.521.028-.659.02-2.05-1.162-3.585-3.23-3.565Zm-1.584 2.818c.042-.83.685-1.344 1.46-1.344h.11c.775 0 1.418.514 1.46 1.344h-3.03Z" clip-rule="evenodd"/>
    </g>
  </g>
  <defs>
    <clipPath id="immutable_svg__a">
      <path fill="#fff" d="M0 0h118v24H0z"/>
    </clipPath>
    <clipPath id="immutable_svg__b">
      <path fill="#fff" d="M0 0h119v24H0z"/>
    </clipPath>
  </defs>
</svg>
